X:109
T:Seumas MacNeil 
C:Joe Buchanan's Scottish Tome - Page 134.0
I:134 0
C:Bobby MacLeod
R:Jig
Z:Carl Allison
L:1/8
M:6/8
K:A
e | "A"A>AA c2 e | "D"f>aa "A"e>aa | "E7"c>dB "A"A2 c | "G"B=GG "E7"Bee |
"A"A>AA "A7"c2 e | "D"faa "A"eaa | "D"f>af "A"e>cB | "F#m"cff f2 :|
e | "A"e>fc e2 e | "D"fee faa | "D"efd "G"B2 =g | "G"B=GG "E7"Bee |
"A"e>fc e2 e | "D"f>ee faa | "D"faf "A"ecB | "F#m"c>ff f2 :|
e | "A"A2 c A2 c | "E7"e>fd B2 "A"a | "E7"c>dB "A"A2 c | "G"B=GG "E7"Bee |
"A"A2 c A2 c | "E7"e>fd B2 "A7"e | "D"f>af "A"ecB | "F#m"c>ff f2 :|
e | "A"a<Ae "E7"cdB | "E7"efd c2 "A"e | "A"a<Ae cdc | "G"B=GG "E7"Bee |
"A"a<Ae "E7"cdB | "E7"e>fd c2 "A"e | "D"f>af "A"ecB | "F#m"cff f2 e |
"A"a<Ae "E7"cdB |  "E7"efd c2 "A"e | "A"a<Ae cdc | "G"B=GG "E7"Bee |
"A"A>BB "E7"B>cc | "A"c<dB c2 e | "D"faf "A"ecB | "F#m"cff f2 |]

